dist/svg/gym-duo-tone.svg

<svg xmlns="http://www.w3.org/2000/svg" viewBox="0 0 24 24"><path d="M3.9 3.259a1 1 0 0 1-.147.037c-.236.052-.51.407-.512.664-.002.295.074.406.71 1.049l.624.629-.404.414c-.584.601-.771 1.01-.771 1.687 0 .611.183 1.101.568 1.522.146.159.483.425.665.524.007.004-.063.118-.155.253-.855 1.252-.213 2.995 1.262 3.425.322.094.885.094 1.2.001.527-.156.652-.254 1.831-1.421l1.111-1.101 1.588 1.588 1.588 1.588-1.101 1.111c-.865.873-1.127 1.162-1.225 1.351a2.14 2.14 0 0 0-.267 1.08c0 .629.211 1.133.663 1.586a2.23 2.23 0 0 0 2.834.276c.135-.092.249-.162.253-.155.099.182.365.519.524.665.416.38.912.568 1.501.568.693 0 1.107-.187 1.708-.771l.414-.404.629.624c.528.524.657.631.804.67a.749.749 0 0 0 .924-.924c-.039-.147-.146-.276-.67-.804l-.624-.629.404-.414c.584-.601.771-1.015.771-1.708 0-.589-.188-1.085-.568-1.501a3.5 3.5 0 0 0-.665-.524 1.5 1.5 0 0 1 .155-.253 2.234 2.234 0 0 0-.257-2.815 2.3 2.3 0 0 0-1.004-.605c-.314-.082-.942-.081-1.224.002-.501.147-.638.254-1.808 1.413l-1.111 1.101-1.588-1.588-1.588-1.588 1.101-1.111c.865-.873 1.127-1.162 1.225-1.351a2.15 2.15 0 0 0 .265-1.08c0-.629-.209-1.133-.654-1.579a2.24 2.24 0 0 0-.97-.581c-.278-.08-.858-.089-1.157-.019-.239.056-.626.24-.823.39-.072.055-.136.093-.141.085-.533-.856-1.16-1.234-2.05-1.235-.664-.002-1.086.192-1.69.776l-.411.399-.609-.604c-.334-.332-.644-.621-.688-.643-.092-.045-.38-.091-.44-.07M8.176 5.03a.76.76 0 0 1 .244.933c-.038.075-.575.644-1.194 1.263S6.038 8.382 5.963 8.42a.83.83 0 0 1-.672-.009.9.9 0 0 1-.27-.247c-.1-.141-.119-.207-.118-.396a.9.9 0 0 1 .066-.348c.036-.066.585-.638 1.221-1.272.86-.858 1.195-1.167 1.312-1.21a.75.75 0 0 1 .674.092m3.447.651a.765.765 0 0 1 .377.904c-.04.125-.546.652-2.615 2.726-1.808 1.813-2.616 2.596-2.738 2.655-.594.288-1.241-.339-.986-.957.085-.206 5.093-5.226 5.319-5.332a.73.73 0 0 1 .643.004m6.454 6.417c.296.205.4.593.246.922-.051.109-.897.979-2.649 2.726-2.767 2.758-2.684 2.686-3.059 2.643a.74.74 0 0 1-.593-1.02c.081-.196 5.086-5.213 5.318-5.332a.74.74 0 0 1 .737.061m.638 3.494c.173.079.347.321.381.529.059.369.036.4-1.229 1.672-.642.645-1.221 1.202-1.287 1.238a.8.8 0 0 1-.352.063c-.19-.001-.261-.022-.396-.118a.9.9 0 0 1-.243-.267.82.82 0 0 1-.009-.672c.079-.154 2.117-2.222 2.349-2.383.253-.176.495-.195.786-.062" fill-rule="evenodd"/></svg>

<svg fill="none" xmlns="http://www.w3.org/2000/svg" viewBox="0 0 24 24"><path d="M3.900 3.259 C 3.878 3.267,3.812 3.284,3.753 3.296 C 3.517 3.348,3.243 3.703,3.241 3.960 C 3.239 4.255,3.315 4.366,3.951 5.009 L 4.575 5.638 4.171 6.052 C 3.587 6.653,3.400 7.062,3.400 7.739 C 3.400 8.350,3.583 8.840,3.968 9.261 C 4.114 9.420,4.451 9.686,4.633 9.785 C 4.640 9.789,4.570 9.903,4.478 10.038 C 3.623 11.290,4.265 13.033,5.740 13.463 C 6.062 13.557,6.625 13.557,6.940 13.464 C 7.467 13.308,7.592 13.210,8.771 12.043 L 9.882 10.942 11.470 12.530 L 13.058 14.118 11.957 15.229 C 11.092 16.102,10.830 16.391,10.732 16.580 C 10.540 16.949,10.465 17.252,10.465 17.660 C 10.465 18.289,10.676 18.793,11.128 19.246 C 11.891 20.009,13.079 20.124,13.962 19.522 C 14.097 19.430,14.211 19.360,14.215 19.367 C 14.314 19.549,14.580 19.886,14.739 20.032 C 15.155 20.412,15.651 20.600,16.240 20.600 C 16.933 20.600,17.347 20.413,17.948 19.829 L 18.362 19.425 18.991 20.049 C 19.519 20.573,19.648 20.680,19.795 20.719 C 20.365 20.871,20.871 20.365,20.719 19.795 C 20.680 19.648,20.573 19.519,20.049 18.991 L 19.425 18.362 19.829 17.948 C 20.413 17.347,20.600 16.933,20.600 16.240 C 20.600 15.651,20.412 15.155,20.032 14.739 C 19.886 14.580,19.549 14.314,19.367 14.215 C 19.360 14.211,19.430 14.097,19.522 13.962 C 20.117 13.090,20.009 11.902,19.265 11.147 C 18.978 10.855,18.608 10.632,18.261 10.542 C 17.947 10.460,17.319 10.461,17.037 10.544 C 16.536 10.691,16.399 10.798,15.229 11.957 L 14.118 13.058 12.530 11.470 L 10.942 9.882 12.043 8.771 C 12.908 7.898,13.170 7.609,13.268 7.420 C 13.458 7.055,13.533 6.749,13.533 6.340 C 13.533 5.711,13.324 5.207,12.879 4.761 C 12.596 4.479,12.274 4.286,11.909 4.180 C 11.631 4.100,11.051 4.091,10.752 4.161 C 10.513 4.217,10.126 4.401,9.929 4.551 C 9.857 4.606,9.793 4.644,9.788 4.636 C 9.255 3.780,8.628 3.402,7.738 3.401 C 7.074 3.399,6.652 3.593,6.048 4.177 L 5.637 4.576 5.028 3.972 C 4.694 3.640,4.384 3.351,4.340 3.329 C 4.248 3.284,3.960 3.238,3.900 3.259 M8.176 5.030 C 8.468 5.235,8.577 5.652,8.420 5.963 C 8.382 6.038,7.845 6.607,7.226 7.226 C 6.607 7.845,6.038 8.382,5.963 8.420 C 5.780 8.513,5.480 8.508,5.291 8.411 C 5.208 8.368,5.086 8.257,5.021 8.164 C 4.921 8.023,4.902 7.957,4.903 7.768 C 4.904 7.635,4.931 7.490,4.969 7.420 C 5.005 7.354,5.554 6.782,6.190 6.148 C 7.050 5.290,7.385 4.981,7.502 4.938 C 7.718 4.858,7.983 4.894,8.176 5.030 M11.623 5.681 C 11.944 5.837,12.111 6.237,12.000 6.585 C 11.960 6.710,11.454 7.237,9.385 9.311 C 7.577 11.124,6.769 11.907,6.647 11.966 C 6.053 12.254,5.406 11.627,5.661 11.009 C 5.746 10.803,10.754 5.783,10.980 5.677 C 11.189 5.579,11.414 5.580,11.623 5.681 M18.077 12.098 C 18.373 12.303,18.477 12.691,18.323 13.020 C 18.272 13.129,17.426 13.999,15.674 15.746 C 12.907 18.504,12.990 18.432,12.615 18.389 C 12.131 18.335,11.834 17.822,12.022 17.369 C 12.103 17.173,17.108 12.156,17.340 12.037 C 17.563 11.923,17.860 11.948,18.077 12.098 M18.715 15.592 C 18.888 15.671,19.062 15.913,19.096 16.121 C 19.155 16.490,19.132 16.521,17.867 17.793 C 17.225 18.438,16.646 18.995,16.580 19.031 C 16.507 19.071,16.370 19.095,16.228 19.094 C 16.038 19.093,15.967 19.072,15.832 18.976 C 15.741 18.912,15.632 18.792,15.589 18.709 C 15.491 18.520,15.487 18.220,15.580 18.037 C 15.659 17.883,17.697 15.815,17.929 15.654 C 18.182 15.478,18.424 15.459,18.715 15.592 " stroke="none" fill-rule="evenodd" fill="currentColor"/></svg>
